X: 26
T: The WONDER
%R: hornpipe
B: Jean White "100 Popular Hornpipes, Reels, Jigs and Country Dances", Boston 1880 p.11
F: http://www.loc.gov/resource/sm1880.09124.0#seq-1
Z: 2014 John Chambers <jc:trillian.mit.edu>
M: C|
L: 1/8
K: Bb
% - - - - - - - - - - - - - - - - - - - - - - - - - - - - -
(3FGA |\
B>fd>B A>ec>A | B>cd>B F2B>A |\
G>Bc>d e>dc>B | A>cf>e (3agf (3edc |
B>fd>B A>ec>A | B>cd>B F2B>A |\
G>gf>e d>cB>A | c2B2 B2 :|
|: (3dcB |\
A>cf>=e f>dc>B | A>cf>=e f>ag>f |\
=e>fg>a b>ge>g | f>=ef>g f2f>_e |
d>ed>c B>dg2 | c>dc>B A>cf2 |\
g>ba>g f>ed>c | B2d2 B2 H:|
% - - - - - - - - - - - - - - - - - - - - - - - - - - - - -

%%sep 1 1 500
%%sep 1 1 500
